assets/svg/1F350.svg

<svg xmlns="http://www.w3.org/2000/svg" viewBox="0 0 64 64" enable-background="new 0 0 64 64"><g transform="translate(6)"><path d="m44.32 52.876c-2.196 1.394-3.975 3.314-6.461 3.64-2.167.284-4.396-.348-6.231 1.588-.563.588-.58 1.961.243 2.217.062.021.124.028.181.045-1.045.547-.549 2.868.526 2.332 4.608-2.308 10.704-.809 12.982-8.181.352-1.148-.413-2.172-1.24-1.641m-9.29 6.101c.83-.133 1.702-.129 2.554-.147-.829.195-1.67.355-2.501.541 0-.133-.021-.268-.053-.394" fill="#a8805a"/><path d="m35.956 26.657c0 0-8.252-1.674-13.03-11.135-5.725-11.329-15.736-1.528-15.736-1.528 0 0-12.569 6.196-3.784 15.353 7.339 7.647 6.186 15.988 6.186 15.988 0 0-1.855 30.22 29.24 13.329 26.25-23.725-2.873-32.01-2.873-32.01" fill="#4fba80"/><path d="m25.05 39.739c0 0 1.258-9.101-6.753-17.45-4.8-5-3.757-9.194-1.521-12.133-4.829-.814-9.587 3.841-9.587 3.841 0 0-12.569 6.192-3.784 15.351 7.339 7.647 6.186 15.988 6.186 15.988 0 0-1.774 28.935 27.29 14.347-12.922-2.1-11.828-19.944-11.828-19.944" fill="#3fa26c"/><path d="m9.62 17.888c-1.345-3-3.223-5.458-3.506-8.842-.249-2.94.409-5.947-1.479-8.48-.576-.773-1.933-.823-2.2.288-.02.082-.027.164-.049.246-.523-1.431-2.826-.804-2.312.658 2.215 6.303.635 14.542 7.9 17.779 1.132.503 2.16-.514 1.646-1.649" fill="#a8805a"/></g></svg>

<?xml version="1.0" encoding="UTF-8" standalone="no"?>
<!-- Generator: Adobe Illustrator 16.0.0, SVG Export Plug-In . SVG Version: 6.00 Build 0)  -->

<svg
   xmlns:dc="http://purl.org/dc/elements/1.1/"
   xmlns:cc="http://creativecommons.org/ns#"
   xmlns:rdf="http://www.w3.org/1999/02/22-rdf-syntax-ns#"
   xmlns:svg="http://www.w3.org/2000/svg"
   xmlns="http://www.w3.org/2000/svg"
   xmlns:sodipodi="http://sodipodi.sourceforge.net/DTD/sodipodi-0.dtd"
   xmlns:inkscape="http://www.inkscape.org/namespaces/inkscape"
   version="1.1"
   id="Layer_1"
   x="0px"
   y="0px"
   width="64px"
   height="64px"
   viewBox="0 0 64 64"
   enable-background="new 0 0 64 64"
   xml:space="preserve"
   inkscape:version="0.48.5 r10040"
   sodipodi:docname="1F350.svg"
   inkscape:export-filename="D:\TESTINGEMOJI\SVGTEST\1F350.png"
   inkscape:export-xdpi="90"
   inkscape:export-ydpi="90"><metadata
   id="metadata3457"><rdf:RDF><cc:Work
       rdf:about=""><dc:format>image/svg+xml</dc:format><dc:type
         rdf:resource="http://purl.org/dc/dcmitype/StillImage" /><dc:title></dc:title></cc:Work></rdf:RDF></metadata><defs
   id="defs3455" /><sodipodi:namedview
   pagecolor="#ffffff"
   bordercolor="#666666"
   borderopacity="1"
   objecttolerance="10"
   gridtolerance="10"
   guidetolerance="10"
   inkscape:pageopacity="0"
   inkscape:pageshadow="2"
   inkscape:window-width="640"
   inkscape:window-height="480"
   id="namedview3453"
   showgrid="false"
   inkscape:zoom="3.6875"
   inkscape:cx="32"
   inkscape:cy="32"
   inkscape:window-x="582"
   inkscape:window-y="329"
   inkscape:window-maximized="0"
   inkscape:current-layer="Layer_1" />
<g
   id="g3443"
   transform="translate(6,0)">
	<path
   d="m 44.323,52.876 c -2.196,1.394 -3.975,3.314 -6.461,3.64 -2.167,0.284 -4.396,-0.348 -6.231,1.588 -0.563,0.588 -0.58,1.961 0.243,2.217 0.062,0.021 0.124,0.028 0.181,0.045 -1.045,0.547 -0.549,2.868 0.526,2.332 4.608,-2.308 10.704,-0.809 12.982,-8.181 0.352,-1.148 -0.413,-2.172 -1.24,-1.641 z m -9.29,6.101 c 0.83,-0.133 1.702,-0.129 2.554,-0.147 -0.829,0.195 -1.67,0.355 -2.501,0.541 0,-0.133 -0.021,-0.268 -0.053,-0.394 z"
   id="path3445"
   inkscape:connector-curvature="0"
   style="fill:#a8805a" />
	<path
   d="m 35.956,26.657 c 0,0 -8.252,-1.674 -13.031,-11.135 C 17.2,4.193 7.189,13.994 7.189,13.994 c 0,0 -12.569,6.196 -3.784,15.353 7.339,7.647 6.186,15.988 6.186,15.988 0,0 -1.855,30.223 29.238,13.329 C 65.081,34.939 35.956,26.657 35.956,26.657 z"
   id="path3447"
   inkscape:connector-curvature="0"
   style="fill:#4fba80" />
	<path
   d="m 25.051,39.739 c 0,0 1.258,-9.101 -6.753,-17.45 -4.8,-5.001 -3.757,-9.194 -1.521,-12.133 -4.829,-0.814 -9.587,3.841 -9.587,3.841 0,0 -12.569,6.192 -3.784,15.351 7.339,7.647 6.186,15.988 6.186,15.988 0,0 -1.774,28.935 27.287,14.347 C 23.957,57.583 25.051,39.739 25.051,39.739 z"
   id="path3449"
   inkscape:connector-curvature="0"
   style="fill:#3fa26c" />
	<path
   d="M 9.62,17.888 C 8.275,14.886 6.397,12.43 6.114,9.046 5.865,6.106 6.523,3.099 4.635,0.566 4.059,-0.207 2.702,-0.257 2.435,0.854 2.415,0.936 2.408,1.018 2.386,1.1 1.863,-0.331 -0.44,0.296 0.074,1.758 2.289,8.061 0.709,16.3 7.974,19.537 9.106,20.04 10.134,19.023 9.62,17.888 z"
   id="path3451"
   inkscape:connector-curvature="0"
   style="fill:#a8805a" />
</g>
</svg>
